styles/1/Numix/32/places/red-folder-cloud.svg

<?xml version="1.0" encoding="UTF-8" standalone="no"?>
<!-- Created with Inkscape (http://www.inkscape.org/) -->

<svg
   xmlns:dc="http://purl.org/dc/elements/1.1/"
   xmlns:cc="http://creativecommons.org/ns#"
   xmlns:rdf="http://www.w3.org/1999/02/22-rdf-syntax-ns#"
   xmlns:svg="http://www.w3.org/2000/svg"
   xmlns="http://www.w3.org/2000/svg"
   xmlns:sodipodi="http://sodipodi.sourceforge.net/DTD/sodipodi-0.dtd"
   xmlns:inkscape="http://www.inkscape.org/namespaces/inkscape"
   width="32"
   height="32"
   id="svg2"
   version="1.1"
   inkscape:version="0.91 r"
   sodipodi:docname="red-folder-cloud.svg"
   inkscape:export-filename="/media/Data/Main/Visuals/Icons/Numix/Desktop/repos/numix-wiki/Gjorgi/Numix-folders/48/New/folder-144.png"
   inkscape:export-xdpi="270"
   inkscape:export-ydpi="270">
  <defs
     id="defs4" />
  <sodipodi:namedview
     id="base"
     pagecolor="#ffffff"
     bordercolor="#666666"
     borderopacity="1.0"
     inkscape:pageopacity="0.0"
     inkscape:pageshadow="2"
     inkscape:zoom="13.399674"
     inkscape:cx="19.711529"
     inkscape:cy="1.9307499"
     inkscape:document-units="px"
     inkscape:current-layer="layer1"
     showgrid="true"
     inkscape:window-width="1280"
     inkscape:window-height="998"
     inkscape:window-x="0"
     inkscape:window-y="0"
     inkscape:window-maximized="1"
     showguides="true"
     inkscape:guide-bbox="true">
    <inkscape:grid
       type="xygrid"
       id="grid2985"
       empspacing="5"
       visible="true"
       enabled="true"
       snapvisiblegridlinesonly="true" />
  </sodipodi:namedview>
  <metadata
     id="metadata7">
    <rdf:RDF>
      <cc:Work
         rdf:about="">
        <dc:format>image/svg+xml</dc:format>
        <dc:type
           rdf:resource="http://purl.org/dc/dcmitype/StillImage" />
        <dc:title />
      </cc:Work>
    </rdf:RDF>
  </metadata>
  <g
     inkscape:label="Layer 1"
     inkscape:groupmode="layer"
     id="layer1"
     transform="translate(0,-1020.3622)">
    <path
       style="font-size:medium;font-style:normal;font-variant:normal;font-weight:normal;font-stretch:normal;text-indent:0;text-align:start;text-decoration:none;line-height:normal;letter-spacing:normal;word-spacing:normal;text-transform:none;direction:ltr;block-progression:tb;writing-mode:lr-tb;text-anchor:start;baseline-shift:baseline;color:#000000;fill:#ef5350;fill-opacity:1;fill-rule:nonzero;stroke:none;stroke-width:2.28612947;marker:none;visibility:visible;display:inline;overflow:visible;enable-background:accumulate;font-family:Sans;-inkscape-font-specification:Sans"
       d="M 2.03125 4 C 1.4665378 4.056 0.99079302 4.58885 1 5.15625 L 1 26.84375 C 0.993016 27.45105 1.5489584 28.007 2.15625 28 L 29.84375 28 C 30.451042 28.01 31.006984 27.45105 31 26.84375 L 31 7.15625 C 31.007 6.54895 30.451042 5.993 29.84375 6 L 19 6 L 19 5.15625 C 19.0069 4.55935 18.471863 4.0095 17.875 4 L 2.15625 4 L 2.03125 4 z M 14.5 12.4375 A 3 2.9999825 0 0 1 14.71875 12.4375 A 3 2.9999825 0 0 1 17.0625 13.5625 A 2.1428571 2.1428553 0 0 1 18.15625 13.28125 A 2.1428571 2.1428553 0 0 1 20.28125 15.4375 A 2.1428571 2.1428553 0 0 1 19.84375 16.71875 L 20.28125 16.71875 L 20.28125 16.75 A 2.1428571 2.1428553 0 0 1 22 18.84375 A 2.1428571 2.1428553 0 0 1 20.28125 20.96875 L 20.28125 21 L 12.28125 21 L 11.9375 21 L 11.71875 21 L 11.71875 20.96875 A 2.1428571 2.1428822 0 0 1 10 18.84375 A 2.1428571 2.1428822 0 0 1 11.71875 16.75 L 11.71875 16.71875 L 12 16.71875 A 3 2.9999825 0 0 1 11.71875 15.4375 A 3 2.9999825 0 0 1 14.5 12.4375 z "
       transform="translate(0,1020.3622)"
       id="path3912" />
  </g>
</svg>

<!-- Created with Inkscape (http://www.inkscape.org/) -->
<svg xmlns="http://www.w3.org/2000/svg" viewBox="0 0 32 32">
 <g transform="translate(0,-1020.3622)">
  <path d="m 2.031 4 c -0.565 0.056 -1.04 0.589 -1.031 1.156 l 0 21.688 c -0.007 0.607 0.549 1.163 1.156 1.156 l 27.688 0 c 0.607 0.01 1.163 -0.549 1.156 -1.156 l 0 -19.688 c 0.007 -0.607 -0.549 -1.163 -1.156 -1.156 l -10.844 0 l 0 -0.844 c 0.007 -0.597 -0.528 -1.147 -1.125 -1.156 l -15.719 0 l -0.125 0 z m 12.469 8.438 a 3 3 0 0 1 0.219 0 a 3 3 0 0 1 2.344 1.125 a 2.143 2.143 0 0 1 1.094 -0.281 a 2.143 2.143 0 0 1 2.125 2.156 a 2.143 2.143 0 0 1 -0.438 1.281 l 0.438 0 l 0 0.031 a 2.143 2.143 0 0 1 1.719 2.094 a 2.143 2.143 0 0 1 -1.719 2.125 l 0 0.031 l -8 0 l -0.344 0 l -0.219 0 l 0 -0.031 a 2.143 2.143 0 0 1 -1.719 -2.125 a 2.143 2.143 0 0 1 1.719 -2.094 l 0 -0.031 l 0.281 0 a 3 3 0 0 1 -0.281 -1.281 a 3 3 0 0 1 2.781 -3 z" transform="translate(0,1020.3622)" style="visibility:visible;fill:#ef5350;fill-opacity:1;stroke:none;display:inline;color:#000;fill-rule:nonzero"/>
 </g>
</svg>
